svgs/duotone/arrows-up-down-left-right.svg

<svg xmlns="http://www.w3.org/2000/svg" viewBox="0 0 512 512"><!--! Font Awesome Pro 6.3.0 by @fontawesome - https://fontawesome.com License - https://fontawesome.com/license (Commercial License) Copyright 2023 Fonticons, Inc. --><defs><style>.fa-secondary{opacity:.4}</style></defs><path class="fa-primary" d="M512 255.1c0 8.188-3.125 16.41-9.375 22.66l-72 72C424.4 356.9 416.2 360 408 360c-18.28 0-32-14.95-32-32c0-8.188 3.125-16.38 9.375-22.62L402.8 288h-293.5l17.38 17.38C132.9 311.6 136 319.8 136 328c0 17.05-13.73 32-32 32c-8.188 0-16.38-3.125-22.62-9.375l-72-72C3.125 272.4 0 264.2 0 255.1s3.125-16.34 9.375-22.59l72-72C87.63 155.1 95.81 152 104 152c18.28 0 32 14.95 32 32c0 8.188-3.125 16.38-9.375 22.62L109.3 224h293.5l-17.38-17.38C379.1 200.4 376 192.2 376 184c0-17.05 13.73-32 32-32c8.188 0 16.38 3.125 22.62 9.375l72 72C508.9 239.6 512 247.8 512 255.1z"/><path class="fa-secondary" d="M184 136c8.188 0 16.38-3.125 22.62-9.375L224 109.3V224h64V109.3l17.38 17.38C311.6 132.9 319.8 136 328 136c18.28 0 32-14.95 32-32c0-8.188-3.125-16.38-9.375-22.62l-72-72C272.4 3.125 264.2 0 256 0S239.6 3.125 233.4 9.375l-72 72C155.1 87.63 152 95.81 152 104C152 121.1 165.7 136 184 136zM328 376c-8.188 0-16.38 3.125-22.62 9.375L288 402.8V288H224v114.8l-17.38-17.38C200.4 379.1 192.2 376 184 376c-18.28 0-32 14.95-32 32c0 8.188 3.125 16.38 9.375 22.62l72 72C239.6 508.9 247.8 512 256 512s16.38-3.125 22.62-9.375l72-72C356.9 424.4 360 416.2 360 408C360 390.9 346.3 376 328 376z"/></svg>

<svg xmlns="http://www.w3.org/2000/svg" viewBox="0 0 512 512"><!-- Font Awesome Pro 6.0.0-alpha2 by @fontawesome - https://fontawesome.com License - https://fontawesome.com/license (Commercial License) --><defs><style>.fa-secondary{opacity:.4}</style></defs><path d="M184 136C192.188 136 200.375 132.875 206.625 126.625L224 109.25V224H288V109.25L305.375 126.625C311.625 132.875 319.812 136 328 136C346.279 136 360 121.053 360 104C360 95.812 356.875 87.625 350.625 81.375L278.625 9.375C272.375 3.125 264.188 0 256 0S239.625 3.125 233.375 9.375L161.375 81.375C155.125 87.625 152 95.812 152 104C152 121.053 165.731 136 184 136ZM328 376C319.812 376 311.625 379.125 305.375 385.375L288 402.75V288H224V402.75L206.625 385.375C200.375 379.125 192.188 376 184 376C165.721 376 152 390.947 152 408C152 416.188 155.125 424.375 161.375 430.625L233.375 502.625C239.625 508.875 247.812 512 256 512S272.375 508.875 278.625 502.625L350.625 430.625C356.875 424.375 360 416.188 360 408C360 390.947 346.269 376 328 376Z " class="fa-secondary"></path><path d="M512 256C512 264.188 508.875 272.375 502.625 278.625L430.625 350.625C424.375 356.875 416.188 360 408 360C389.721 360 376 345.053 376 328C376 319.812 379.125 311.625 385.375 305.375L402.75 288H109.25L126.625 305.375C132.875 311.625 136 319.812 136 328C136 345.053 122.269 360 104 360C95.812 360 87.625 356.875 81.375 350.625L9.375 278.625C3.125 272.375 0 264.188 0 256S3.125 239.625 9.375 233.375L81.375 161.375C87.625 155.125 95.812 152 104 152C122.279 152 136 166.947 136 184C136 192.188 132.875 200.375 126.625 206.625L109.25 224H402.75L385.375 206.625C379.125 200.375 376 192.188 376 184C376 166.947 389.731 152 408 152C416.188 152 424.375 155.125 430.625 161.375L502.625 233.375C508.875 239.625 512 247.812 512 256Z " class="fa-primary"></path></svg>
